!!!!SEGMENT: pl-wtm--r-1712_stefani-jozef--obertas-mazur-na-ustroniu.krn
!!!cenid: 18xx:2323
!!!COM: Stefani, Józef
!!!COM-rismID: pe30024097
!!!CDT: 1800/04/16-1876/03/19
!!!CNT: Polish
!!!OTL: Obertas mazur na ustroniu
!!!PDT:
!!!AGN: Secular
!!!SMS-siglum: PL-Wtm
!!!SMS-shelfmark: R 1712
!!!SMS-shelfwork: W
!!!SMS-variant:
!!!SMS-altvar:
!!!NIFC-rismSourceID: 1001128764
!!!NIFC-islandoraID: pl-wtm:28238
!!!URL-pdf-islandora: https://repozytorium.nifc.pl/islandora/object/pl-wtm%3A28238/datastream/PDF/view
!!!URL-scan: https://polish.musicsources.pl/pl/lokalizacje/galeria/rekopisy/6450 @EN{Scan on Polish Music Sources Website} @PL{Skany w portalu Dziedzictwo Muzyki Polskiej w otwartym dostępie}
!!!ONB-nifc:
!!!AIN: 1 cbass 1 cello 1 clars 1 cor 1 empty 1 fagot 1 flt 1 timpa 1 tromp 1 tromt 1 viola 1 violn
!!!key:
**kern	**dynam	**kern	**dynam	**kern	**dynam	**kern	**dynam	**kern	**dynam	**kern	**dynam	**kern	**dynam	**kern	**dynam	**kern	**dynam	**kern	**dynam	**kern	**dynam	**kern	**dynam
*part12	*part12	*part11	*part11	*part10	*part10	*part9	*part9	*part8	*part8	*part7	*part7	*part6	*part6	*part5	*part5	*part4	*part4	*part3	*part3	*part2	*part2	*part1	*part1
*staff12	*	*staff11	*	*staff10	*	*staff9	*	*staff8	*	*staff7	*	*staff6	*	*staff5	*	*staff4	*	*staff3	*	*staff2	*	*staff1	*
*Icbass	*	*Icello	*	*Iviola	*	*Iempty	*	*Ivioln	*	*Itimpa	*	*Itromt	*	*Itromp	*	*Ifagot	*	*Icor	*	*Iclars	*	*Iflt	*
*I"C:Baſso	*	*I"Violoncello	*	*I"Viole	*	*	*	*I"Violini	*	*I"D.A. Timpani	*	*I"Trombone	*	*I"in C Trombe	*	*I"Fagoto	*	*I"Corni	*	*I"in A. Clarinetti	*	*I"Flauto	*
*clefF4	*	*clefF4	*	*clefC3	*	*clefG2	*	*clefG2	*	*clefF4	*	*clefF4	*	*clefG2	*	*clefF4	*	*clefG2	*	*clefG2	*	*clefG2	*
*ITrd0c0	*	*	*	*	*	*	*	*	*	*	*	*	*	*	*	*	*	*ITrd6c10	*	*ITrd2c3	*	*	*
*k[f#c#]	*	*k[f#c#]	*	*k[f#c#]	*	*k[f#c#]	*	*k[f#c#]	*	*k[]	*	*k[f#c#]	*	*k[f#c#]	*	*k[f#c#]	*	*k[f#c#]	*	*k[f#c#]	*	*k[f#c#]	*
*G:	*	*G:	*	*G:	*	*G:	*	*G:	*	*G:	*	*G:	*	*G:	*	*G:	*	*G:	*	*G:	*	*G:	*
*M3/8	*	*M3/8	*	*M3/8	*	*M3/8	*	*M3/8	*	*M3/8	*	*M3/8	*	*M3/8	*	*M3/8	*	*M3/8	*	*M3/8	*	*M3/8	*
=1	=1	=1	=1	=1	=1	=1	=1	=1	=1	=1	=1	=1	=1	=1	=1	=1	=1	=1	=1	=1	=1	=1	=1
*	*	*	*	*	*	*	*	*	*	*	*	*	*	*	*	*	*	*	*	*^	*	*	*
*	*	*	*	*	*	*	*	*	*	*	*	*	*	*	*	*	*	*	*	*	*tremolo	*	*	*
!	!	!LO:TX:t=P:problem=t. 1-64 – brak odnośnika do cb	!	!	!	!	!	!	!	!LO:TX:t=P:problem=przed metrum 4D i 4AA wskazujące strój	!	!	!	!	!	!LO:TX:t=P::problem=t. 1-8 zapisane odnośnikiem&colon; Col b	!	!	!	!	!	!	!LO:TX:t=P:problem=all\middle or left&colon; global	!
!	!	!	!	!	!LO:DY:rj	!	!	!	!LO:DY:rj	!	!LO:DY:rj	!	!LO:DY:rj	!	!LO:DY:rj	!	!LO:DY:rj	!	!	!	!	!	!	!LO:DY:rj
8D^<\L	f	8D^<\Lyy	fyy	8d/L 8F#/	f	8a/L 8f#/	.	8dd/L 8f#/ 8A^>/	f	8D/	f	8D\L	f	8d^>/L	f	8D^\Lyy	fyy	8d/L 8F#/	.	8dd^/L	8a\L	.	8ddd'\L	f
8d^<\	.	8d^<\yy	.	8d/ 8F#/	.	8a/ 8f#/	.	8dd/ 8f#/ 8A^>/	.	8D/	.	8D\	.	8d^>/	.	8d^\yy	.	8d/ 8F#/	.	8dd^/	8a\	.	8ddd'\	.
8D^<\J	.	8D^<\Jyy	.	8d/J 8F#/	.	8a/J 8f#/	.	8dd/J 8f#/ 8A^>/	.	8D/	.	8D\J	.	8d^>/J	.	8D^\Jyy	.	8d/J 8F#/	.	8dd^/J	8a\J	.	8ddd'\J	.
=2	=2	=2	=2	=2	=2	=2	=2	=2	=2	=2	=2	=2	=2	=2	=2	=2	=2	=2	=2	=2	=2	=2	=2	=2
!LO:TX:t=P:problem=8C# poprawione na 8D	!	!LO:TX:t=P:problem=8C# poprawione na 8D	!	!	!	!LO:TX:t=P:problem=usunięte e	!	!	!	!LO:TX:t=P:problem=usunięte 8AA	!	!LO:TX:t=P:problem=usunięte 8C#	!	!	!	!LO:TX:t=P:problem=8C# poprawione na 8D	!	!	!	!	!	!	!	!
8D\L	.	8D\Lyy	.	8c#/L 8E/	.	8a/L 8g/	.	16.ee\LL	.	8ryy	.	8D\Lyy	.	16.e/LL	.	8D\Lyy	.	8e/L 8A/	.	16.ee/LL	8a\L	.	16.eee\LL	.
.	.	.	.	.	.	.	.	32gg\JJk	.	.	.	.	.	32g/JJk	.	.	.	.	.	32gg/JJk	.	.	32ggg\JJk	.
8D\	.	8D\yy	.	8d/ 8F#/	.	8a/ 8f#/	.	8ff#\L	.	8D/L	.	8D\	.	8f#/L	.	8D\yy	.	8f#/ 8d/	.	8ff#/L	8a\	.	8fff#\L	.
8F#\J	.	8F#\Jyy	.	8d/J 8F#/	.	8a/J 8d/	.	8dd\J	.	8D/J	.	8F#\J	.	8d/J	.	8F#\Jyy	.	8d/J 8F#/	.	8dd/J	8a\J	.	8ddd\J	.
=3	=3	=3	=3	=3	=3	=3	=3	=3	=3	=3	=3	=3	=3	=3	=3	=3	=3	=3	=3	=3	=3	=3	=3	=3
*	*	*	*	*	*	*	*	*	*	*	*	*	*	*	*	*	*	*^	*	*	*	*	*	*
8G\L	.	8G\Lyy	.	8G/L	.	8b/L 8g/	.	8b\L	.	8r	.	8G\L	.	8B/L	.	8G\Lyy	.	8r	8ryy	.	8b/L	8b\L	.	8bb\L	.
8G\	.	8G\yy	.	8G/	.	8b/ 8g/	.	8ee\	.	8r	.	8G\	.	8e/	.	8G\yy	.	8r	8ryy	.	8ee/	8b\	.	8eee\	.
8G#X^<\J	.	8G#X^<\Jyy	.	8G#X^/J	.	8b/J 8e^/	.	8dd^<\J	.	8D/	.	8G#X\J	.	8d/J	.	8G#X^\Jyy	.	8e/	8e\	.	8dd/J	8b\J	.	8ddd\J	.
*	*	*	*	*	*	*	*	*	*	*	*	*	*	*	*	*	*	*v	*v	*	*	*	*	*	*
=4	=4	=4	=4	=4	=4	=4	=4	=4	=4	=4	=4	=4	=4	=4	=4	=4	=4	=4	=4	=4	=4	=4	=4	=4
*	*	*	*	*	*	*tremolo	*	*	*	*	*	*	*	*	*	*	*	*tremolo	*	*	*	*	*	*
!LO:TX:t=P:problem=mixed beam	!	!LO:TX:t=P:problem=mixed beam	!	!	!	!	!	!	!	!	!	!LO:TX:t=P:problem=mixed beam	!	!	!	!LO:TX:t=P:problem=mixed beam	!	!	!	!	!	!	!	!
.	.	.	.	.	.	.	.	8qdd/	.	.	.	.	.	(8qd/	.	.	.	.	.	8qdd/	.	.	(8qddd/	.
8A\L	.	8A\Lyy	.	8A/L	.	8a/L 8g/	.	16.cc#\LL	.	8AA/L	.	8A\L	.	16.c#/LL)	.	8A\Lyy	.	8e/L 8A/	.	16.cc#/LL	8a\L	.	16.ccc#\LL)	.
.	.	.	.	.	.	.	.	32b\JJk	.	.	.	.	.	32B/JJk|	.	.	.	.	.	32b/JJk	.	.	32bb\JJk|	.
8AA/	.	8AA/yy	.	8e/ 8A/	.	8a/ 8g/	.	8cc#\L	.	8AA/	.	8AA/	.	8c#/L|	.	8AA\yy	.	8e/ 8A/	.	8cc#/L	8a\	.	8ccc#\L|	.
8C#/J	.	8C#/Jyy	.	8e/J 8A/	.	8a/J 8g/	.	8a\J	.	8AA/J	.	8C#/J	.	8A/J|	.	8C#\Jyy	.	8e/J 8A/	.	8a/J	8a\J	.	8aa\J|	.
*	*	*	*	*	*	*Xtremolo	*	*	*	*	*	*	*	*	*	*	*	*Xtremolo	*	*	*Xtremolo	*	*	*
=5	=5	=5	=5	=5	=5	=5	=5	=5	=5	=5	=5	=5	=5	=5	=5	=5	=5	=5	=5	=5	=5	=5	=5	=5
!	!	!	!	!	!	!	!	!LO:N:n=2:vis=4.	!	!	!	!	!	!	!	!	!	!	!	!	!	!	!	!
!	!	!	!	!	!	!	!	!LO:N:n=1:vis=4.	!	!	!	!	!	!	!	!	!	!	!	!	!	!	!	!
8D\L	.	8D\Lyy	.	8d/L 8F#/	.	8a/L 8f#/	.	8dd/L 8f#/ 8A^>/	.	8D/	.	8D\L	.	8d/L	.	8D\Lyy	.	8d/L 8F#/	.	8dd/L	8a\L	.	8ddd\L	.
8d\	.	8d\yy	.	8d/ 8F#/	.	8a/ 8f#/	.	8dd^>/	.	8D/	.	8D\	.	8d/	.	8d\yy	.	8d/ 8F#/	.	8dd/	8a\	.	8ddd\	.
8D\J	.	8D\Jyy	.	8d/J 8F#/	.	8a/J 8f#/	.	8dd^>/J	.	8D/	.	8D\J	.	8d/J	.	8D\Jyy	.	8d/J 8F#/	.	8dd/J	8a\J	.	8ddd\J	.
!!LO:PB:g=original
=6	=6	=6	=6	=6	=6	=6	=6	=6	=6	=6	=6	=6	=6	=6	=6	=6	=6	=6	=6	=6	=6	=6	=6	=6
*	*	*	*	*	*	*	*	*	*	*	*	*	*	*	*	*	*	*	*	*	*tremolo	*	*	*
!LO:TX:t=P:problem=8C# poprawione na 8D	!	!LO:TX:t=P:problem=8C# poprawione na 8D	!	!	!	!LO:TX:t=P:problem=usunięte e	!	!	!	!LO:TX:t=P:problem=8AA 8D 8D poprawione na 4.D	!	!LO:TX:t=P:problem=8C# poprawione na 8D	!	!	!	!LO:TX:t=P:problem=8C# poprawione na 8D	!	!	!	!	!	!	!	!
8D\L	.	8D\Lyy	.	8c#/L 8E/	.	8a/L	.	16.ee\LL	.	8D/Lyy	.	8D\L	.	16.e/LL	.	8D\Lyy	.	8e/L 8A/	.	16.ee/LL	8a\L	.	16.eee\LL	.
.	.	.	.	.	.	.	.	32gg\JJk	.	.	.	.	.	32g/JJk	.	.	.	.	.	32gg/JJk	.	.	32ggg\JJk	.
8D\	.	8D\yy	.	8d/ 8F#/	.	8a/ 8f#/	.	8ff#\L	.	8D/yy	.	8D\	.	8f#/L	.	8D\yy	.	8f#/ 8d/	.	8ff#/L	8a\	.	8fff#\L	.
8F#\J	.	8F#\Jyy	.	8d/J 8F#/	.	8a/J 8d/	.	8dd\J	.	8D/Jyy	.	8F#\J	.	8d/J	.	8F#\Jyy	.	8d/J 8F#/	.	8dd/J	8a\J	.	8ddd\J	.
=7	=7	=7	=7	=7	=7	=7	=7	=7	=7	=7	=7	=7	=7	=7	=7	=7	=7	=7	=7	=7	=7	=7	=7	=7
*	*	*	*	*	*	*	*	*	*	*	*	*	*	*	*	*	*	*^	*	*	*	*	*	*
8G\L	.	8G\Lyy	.	8G/L	.	8b/L 8g/	.	8b\L	.	8ryy	.	8G\L	.	8B/L	.	8G\Lyy	.	8r	8ryy	.	8b/L	8b\L	.	8bb\L	.
8G\	.	8G\yy	.	8G/	.	8b/ 8g/	.	8ee\	.	8ryy	.	8G\	.	8e/	.	8G\yy	.	8r	8ryy	.	8ee/	8b\	.	8eee\	.
8G#X^<\J	.	8G#X^<\Jyy	.	8G#X^/J	.	8b/J 8e^/	.	8dd\J	.	8D/yy	.	8G#X\J	.	8d/J	.	8G#X^\Jyy	.	8e/	8e\	.	8dd/J	8b\J	.	8ddd\J	.
*	*	*	*	*	*	*	*	*	*	*	*	*	*	*	*	*	*	*	*	*	*	*Xtremolo	*	*	*
*	*	*	*	*	*	*	*	*	*	*	*	*	*	*	*	*	*	*v	*v	*	*	*	*	*	*
=8	=8	=8	=8	=8	=8	=8	=8	=8	=8	=8	=8	=8	=8	=8	=8	=8	=8	=8	=8	=8	=8	=8	=8	=8
.	.	.	.	.	.	.	.	(8qdd/	.	.	.	.	.	(8qd/	.	.	.	.	.	8qdd/	.	.	(8qddd/	.
8A\	.	8A\yy	.	8e\ 8A\	.	8a/ 8g/	.	16.cc#\LL)	.	8AA/yy	.	8A\	.	16.c#/LL)	.	8A\yy	.	8e/ 8A/	.	16.cc#/LL	8a\	.	16.ccc#\LL)	.
.	.	.	.	.	.	.	.	32a\JJk	.	.	.	.	.	32A/JJk	.	.	.	.	.	32a/JJk	.	.	32aa\JJk|	.
8D\	.	8D\yy	.	8d\	.	8a/ 8f#/	.	8dd\	.	8D/yy	.	8D\	.	8d/	.	8D\yy	.	8d/ 8F#/	.	8dd/	8a\	.	8ddd\|	.
8r	.	8ryy	.	8r	.	8r	.	8r	.	8ryy	.	8r	.	8r	.	8ryy	.	8r	.	8r	8ryy	.	8r	.
*	*	*	*	*	*	*	*	*	*	*	*	*	*	*	*	*	*	*	*	*v	*v	*	*	*
=9!|:	=9!|:	=9!|:	=9!|:	=9!|:	=9!|:	=9!|:	=9!|:	=9!|:	=9!|:	=9!|:	=9!|:	=9!|:	=9!|:	=9!|:	=9!|:	=9!|:	=9!|:	=9!|:	=9!|:	=9!|:	=9!|:	=9!|:	=9!|:
*	*	*	*	*	*	*	*	*^	*	*	*	*	*	*^	*	*	*	*^	*	*	*	*	*
*	*	*	*	*	*	*	*	*cue	*	*	*	*	*	*	*	*	*	*	*	*	*	*	*	*	*	*
!	!	!	!	!	!	!	!	!	!	!	!	!	!	!	!	!	!	!	!	!LO:TX:t=P:problem=usunięta dynamika mf	!	!	!	!	!	!
8GG#X/	.	8GG#X/yy	.	8r	.	8r	.	8ee/L	4.r	.	4.ryy	.	4.r	.	8e'</L	4.r	.	4.B\	.	4.e/	4.d\	.	8e'/L	.	8ee\L	.
8r	.	8ryy	.	8B/L 8E/	.	8e/L 8d/	.	16ff#/L	.	.	.	.	.	.	16f#'</L	.	.	.	.	.	.	.	16f#'/L	.	16ff#'\L	.
.	.	.	.	.	.	.	.	16gg#X/	.	.	.	.	.	.	16g#X'</	.	.	.	.	.	.	.	16g#'/	.	16gg#X'\	.
8r	.	8ryy	.	8B/J 8E/	.	8e/J 8d/	.	16aa/	.	.	.	.	.	.	16a'</	.	.	.	.	.	.	.	16a'/	.	16aa'\	.
.	.	.	.	.	.	.	.	16bb/JJ	.	.	.	.	.	.	16b'</JJ	.	.	.	.	.	.	.	16b'/JJ	.	16bb'\JJ	.
*	*	*	*	*	*	*	*	*	*	*	*	*	*	*	*	*	*	*	*	*v	*v	*	*	*	*	*
=10	=10	=10	=10	=10	=10	=10	=10	=10	=10	=10	=10	=10	=10	=10	=10	=10	=10	=10	=10	=10	=10	=10	=10	=10	=10
8AA/	.	8AA/yy	.	8r	.	8r	.	16ccc#/LL	8r	.	4.ryy	.	4.r	.	16cc#/LL	4.r	.	4.c#\	.	4.e/ 4.A/	.	16cc#'/LL	.	16ccc#'\LL	.
.	.	.	.	.	.	.	.	16ddd/J	.	.	.	.	.	.	16dd/J	.	.	.	.	.	.	16dd'/JJ	.	16ddd'\J	.
8r	.	8ryy	.	8A/L 8E/	.	8e/L 8c#/	.	8eee/J	8r	.	.	.	.	.	8ee/J	.	.	.	.	.	.	8ee'/L	.	8eee'\	.
*	*	*	*	*	*	*	*	*Xcue	*	*	*	*	*	*	*	*	*	*	*	*	*	*	*	*	*
*	*	*	*	*	*	*	*	*8va	*	*	*	*	*	*	*	*	*	*	*	*	*	*	*	*	*
8r	.	8ryy	.	8A/J 8E/	.	8e/J 8c#/	.	8fff#\	8ryy	.	.	.	.	.	8r	.	.	.	.	.	.	8ff#'/J	.	8fff#'\J	.
*	*	*	*	*	*	*	*	*v	*v	*	*	*	*	*	*v	*v	*	*	*	*	*	*	*	*	*
=11	=11	=11	=11	=11	=11	=11	=11	=11	=11	=11	=11	=11	=11	=11	=11	=11	=11	=11	=11	=11	=11	=11	=11
*	*	*	*	*	*	*	*	*	*	*	*	*	*	*	*	*	*	*^	*	*	*	*	*
!	!	!	!	!	!	!	!	!LO:TX:a:t=Solo	!	!	!	!	!	!LO:TX:t=P:problem=usunięte pauzy całotaktowe	!	!	!	!	!	!	!	!	!	!
8E\	.	8E\yy	.	8r	.	8r	.	(16fff#\LL	.	4.ryy	.	4.E\	.	4.g#X/ 4.B/	.	4.B\	.	4.e/	4.d\	.	(16ff#/LL	.	(16fff#\LL	.
.	.	.	.	.	.	.	.	16eee\JJ)	.	.	.	.	.	.	.	.	.	.	.	.	16ee/JJ)	.	16eee\JJ)	.
8r	.	8ryy	.	8B/L 8G#X/	.	8e/L 8d/	.	8bb'\L	.	.	.	.	.	.	.	.	.	.	.	.	8b'/L	.	8bb'\L	.
8r	.	8ryy	.	8B/J 8G#/	.	8e/J 8d/	.	8ddd'\J	.	.	.	.	.	.	.	.	.	.	.	.	8dd'/J	.	8ddd'\J	.
*	*	*	*	*	*	*	*	*	*	*	*	*	*	*	*	*	*	*v	*v	*	*	*	*	*
!!LO:PB:g=original
=12	=12	=12	=12	=12	=12	=12	=12	=12	=12	=12	=12	=12	=12	=12	=12	=12	=12	=12	=12	=12	=12	=12	=12
8AA/	.	8AA/yy	.	8r	.	8r	.	16.ccc#/LL	.	4.r	.	8A\	.	8a/ 8c#/	.	4.c#\	.	4.e/ 4.A/	.	16.cc#/LL	.	16.ccc#'\LL	.
.	.	.	.	.	.	.	.	32gg#X/K	.	.	.	.	.	.	.	.	.	.	.	32g#/K	.	32gg#X'\K	.
8r	.	8ryy	.	8A/L	.	8e/L 8c#/	.	16.aa/	.	.	.	8r	.	8r	.	.	.	.	.	16.a/	.	16.aa'\	.
.	.	.	.	.	.	.	.	32ff#/JK	.	.	.	.	.	.	.	.	.	.	.	32f#/JK	.	32ff#'\JK	.
8r	.	8ryy	.	8A/J	.	8e/J 8c#/	.	8ee/J	.	.	.	8r	.	8r	.	.	.	.	.	8e/J	.	8ee'\J	.
*	*	*	*	*	*	*	*	*X8va	*	*	*	*	*	*	*	*	*	*	*	*	*	*	*
=13	=13	=13	=13	=13	=13	=13	=13	=13	=13	=13	=13	=13	=13	=13	=13	=13	=13	=13	=13	=13	=13	=13	=13
*	*	*	*	*	*	*	*	*^	*	*	*	*	*	*^	*	*	*	*^	*	*	*	*	*
8AA#X/	.	8AA#X/yy	.	8r	.	8r	.	8ff#/L	4.r	.	4.r	.	4.r	.	8f#'</L	4.r	.	4.c#\	.	4.f#/	4.e\	.	8f#/L	.	8ff#'\L	.
8r	.	8ryy	.	8F#/L	.	8e/L 8c#/	.	16gg#X/L	.	.	.	.	.	.	16g#X'</L	.	.	.	.	.	.	.	16g#/L	.	16gg#X'\L	.
.	.	.	.	.	.	.	.	16aa#X/	.	.	.	.	.	.	16a#X'</	.	.	.	.	.	.	.	16a#X/	.	16aa#X'\	.
8r	.	8ryy	.	8F#/J	.	8e/J 8c#/	.	16bb/	.	.	.	.	.	.	16b'</	.	.	.	.	.	.	.	16b/	.	16bb'\	.
.	.	.	.	.	.	.	.	16ccc#/JJ	.	.	.	.	.	.	16cc#'</JJ	.	.	.	.	.	.	.	16cc#/JJ	.	16ccc#'\JJ	.
=14	=14	=14	=14	=14	=14	=14	=14	=14	=14	=14	=14	=14	=14	=14	=14	=14	=14	=14	=14	=14	=14	=14	=14	=14	=14	=14
!	!	!	!	!	!	!	!	!	!	!	!	!	!	!	!	!	!	!LO:TX:t=P:problem=4.c# poprawione na 4.B	!	!	!	!	!	!	!	!
8BB/	.	8BB/yy	.	8r	.	8r	.	16ddd/LL	8r	.	4.r	.	4.r	.	16dd'/LL	4.r	.	4.B\	.	4.f#/	4.d\	.	16dd/LL	.	(16ddd\LL	.
.	.	.	.	.	.	.	.	16eee/JJ	.	.	.	.	.	.	16ee'/J	.	.	.	.	.	.	.	16ee/JJ	.	16eee\JJ)	.
8r	.	8ryy	.	8F#/L	.	8d/L 8B/	.	8fff#/	8r	.	.	.	.	.	8ff#'/J	.	.	.	.	.	.	.	8ff#/L	.	8fff#\L	.
!	!	!	!	!	!	!	!	!LO:TX:a:t=loco	!	!	!	!	!	!	!	!	!	!	!	!	!	!	!	!	!	!
8r	.	8ryy	.	8F#/J	.	8d/J 8B/	.	8ff#\	8ryy	.	.	.	.	.	8r	.	.	.	.	.	.	.	8ff#/J	.	8fff#\J	.
*	*	*	*	*	*	*	*	*v	*v	*	*	*	*	*	*	*	*	*	*	*	*	*	*	*	*	*
=15	=15	=15	=15	=15	=15	=15	=15	=15	=15	=15	=15	=15	=15	=15	=15	=15	=15	=15	=15	=15	=15	=15	=15	=15	=15
8E\	.	8E\yy	.	8r	.	8r	.	(16ff#\LL	.	8r	.	4.E\	.	4.g#X/ 4.B/	4.r	.	4.B\	.	4.e/	4.d\	.	(>16ff#/LL	.	(16fff#\LL	.
.	.	.	.	.	.	.	.	16ee\JJ)	.	.	.	.	.	.	.	.	.	.	.	.	.	16ee/JJ)	.	16eee\JJ)	.
8r	.	8ryy	.	8B/L 8E/	.	8d/L 8B/	.	8f#'/L	.	8r	.	.	.	.	.	.	.	.	.	.	.	8f#/L	.	8ff#'\L	.
8r	.	8ryy	.	8B/J 8E/	.	8d/J 8B/	.	8g#X'/J	.	8D\	.	.	.	.	.	.	.	.	.	.	.	8g#/J	.	8gg#X'\J	.
*	*	*	*	*	*	*	*	*	*	*	*	*	*	*v	*v	*	*	*	*v	*v	*	*	*	*	*
=16	=16	=16	=16	=16	=16	=16	=16	=16	=16	=16	=16	=16	=16	=16	=16	=16	=16	=16	=16	=16	=16	=16	=16
!	!	!	!	!	!	!	!	!	!	!	!	!	!	!	!	!LO:TX:t=P:problem=8A poprawione na 8c#	!	!	!	!	!	!	!
8A\	.	8A\yy	.	8A/	.	8e/ 8c#/	.	(32b/KLL	.	8AA/	.	8AA/L	.	8a/ 8c#/	.	8c#\	.	8e/ 8A/	.	(>32b/KLL	.	(32bb\KLL	.
.	.	.	.	.	.	.	.	16a/JJ)	.	.	.	.	.	.	.	.	.	.	.	16a/JJ)	.	16aa\JJ)	.
.	.	.	.	.	.	.	.	32r	.	.	.	.	.	.	.	.	.	.	.	32r	.	32r	.
8AA/	.	8AA/yy	.	8a\ 8e\ 8A\	.	8a/ 8e/ 8c#/	.	8aa\ 8a\	.	8AA/	.	8AA/J	.	8a/ 8c#/	.	8c#\	.	8e/ 8A/	.	8a/	.	8aa\	.
8r	.	8ryy	.	8r	.	8r	.	8r	.	8r	.	8r	.	8r	.	8r	.	8r	.	8r	.	8r	.
=17	=17	=17	=17	=17	=17	=17	=17	=17	=17	=17	=17	=17	=17	=17	=17	=17	=17	=17	=17	=17	=17	=17	=17
!	!	!	!	!	!	!	!	!LO:TX:t=P:problem=usunięta dynamika f	!	!	!	!	!	!	!	!	!	!	!	!	!	!	!
!	!LO:DY:rj	!	!LO:DY:rj	!	!LO:DY:rj:a	!	!LO:DY:rj:a	!LO:TX:t=P:problem=usunięte A i akcent	!	!	!	!	!	!	!	!	!	!	!	!	!	!	!
8D\L	p	8D\Lyy	pyy	8d/L 8F#/	p	8a/L 8f#/	p	8dd/ 8f#/	.	4.ryy	.	4.ryy	.	4.ryy	.	4.ryy	.	4.ryy	.	4.ryy	.	4.ryy	.
!	!	!	!	!	!	!	!	!LO:TX:t=P:problem=usunięte A i akcent	!	!	!	!	!	!	!	!	!	!	!	!	!	!	!
8d\	.	8d\yy	.	8d/ 8F#/	.	8a/ 8f#/	.	8dd/ 8f#/	.	.	.	.	.	.	.	.	.	.	.	.	.	.	.
!	!	!	!	!	!	!	!	!LO:TX:t=P:problem=usunięte A i akcent	!	!	!	!	!	!	!	!	!	!	!	!	!	!	!
8D\J	.	8D\Jyy	.	8d/J 8F#/	.	8a/J 8f#/	.	8dd/ 8f#/	.	.	.	.	.	.	.	.	.	.	.	.	.	.	.
!!LO:PB:g=original
=18	=18	=18	=18	=18	=18	=18	=18	=18	=18	=18	=18	=18	=18	=18	=18	=18	=18	=18	=18	=18	=18	=18	=18
8D\L	.	8D\Lyy	.	8c#/L 8E/	.	8a/L 8g/	.	16.ee\LL	.	4.ryy	.	4.ryy	.	4.ryy	.	4.r	.	4.r	.	4.r	.	4.r	.
.	.	.	.	.	.	.	.	32gg\JJk	.	.	.	.	.	.	.	.	.	.	.	.	.	.	.
8D\	.	8D\yy	.	8d/ 8F#/	.	8a/ 8f#/	.	8ff#\L	.	.	.	.	.	.	.	.	.	.	.	.	.	.	.
8F#\J	.	8F#\Jyy	.	8d/J 8F#/	.	8a/J 8d/	.	8dd\J	.	.	.	.	.	.	.	.	.	.	.	.	.	.	.
=19	=19	=19	=19	=19	=19	=19	=19	=19	=19	=19	=19	=19	=19	=19	=19	=19	=19	=19	=19	=19	=19	=19	=19
*	*	*	*	*	*	*	*	*	*	*	*	*	*	*	*	*	*	*^	*	*^	*	*	*
8G\L	.	8G\Lyy	.	8G/L	.	8b/L 8g/	.	8b\L	.	4.ryy	.	4.ryy	.	4.ryy	.	8r	.	8r	8ryy	.	8b/L	8r	.	8bb\L	.
8G\	.	8G\yy	.	8G/	.	8b/ 8g/	.	8ee\	.	.	.	.	.	.	.	8r	.	8r	8ryy	.	8ee/	8r	.	8eee\	.
!	!	!	!	!	!	!	!	!	!	!	!	!	!	!	!	!LO:TX:t=P:problem=8B poprawione na 8G#	!	!	!	!	!LO:TX:t=P:problem=8bn poprawione na 8d	!	!	!	!
8G#X\J	.	8G#X\Jyy	.	8G#X/J	.	8b/J 8e/	.	8dd\J	.	.	.	.	.	.	.	8G#X\	p	8e/	8d\	.	8dd/J	8B/	p	8ddd\J	.
*	*	*	*	*	*	*	*	*	*	*	*	*	*	*	*	*	*	*v	*v	*	*	*	*	*	*
=20	=20	=20	=20	=20	=20	=20	=20	=20	=20	=20	=20	=20	=20	=20	=20	=20	=20	=20	=20	=20	=20	=20	=20	=20
*	*	*	*	*	*	*tremolo	*	*	*	*	*	*	*	*	*	*	*	*	*	*	*	*	*	*
!	!	!	!	!	!	!	!	!	!	!	!	!	!	!	!	!LO:N:vis=4.	!	!	!	!	!	!	!	!
!LO:TX:t=P:problem=mixed beam	!	!LO:TX:t=P:problem=mixed beam	!	!	!	!	!	!	!	!	!	!	!	!	!	!LO:TX:t=P:problem=4.c# poprawione na 4.A	!	!	!	!LO:TX:t=P:problem=4.cc poprawione na 8c	!	!	!	!
.	.	.	.	.	.	.	.	8qdd/	.	.	.	.	.	.	.	.	.	.	.	8qdd/	.	.	(8qddd/	.
8A\L	.	8A\Lyy	.	8A/L	.	8a/L 8g/	.	16.cc#\LL	.	4.ryy	.	4.ryy	.	4.ryy	.	8A\	.	8e/L 8A/	.	16.cc#/LL	8A/L	.	16.ccc#\LL)	.
.	.	.	.	.	.	.	.	32b\JJk	.	.	.	.	.	.	.	.	.	.	.	32b/JJk	.	.	32bb\JJk|	.
8AA/	.	8AA/yy	.	8e/ 8A/	.	8a/ 8g/	.	8cc#\L	.	.	.	.	.	.	.	8A\L	.	8e/ 8A/	.	8cc#/L	8A/	.	8ccc#\L|	.
8C#/J	.	8C#/Jyy	.	8e/J 8A/	.	8a/J 8g/	.	8a\J	.	.	.	.	.	.	.	8c#\J	.	8e/J 8A/	.	8a/J	8A/J	.	8aa\J|	.
*	*	*	*	*	*	*	*	*	*	*	*	*	*	*	*	*	*	*	*	*v	*v	*	*	*
=21	=21	=21	=21	=21	=21	=21	=21	=21	=21	=21	=21	=21	=21	=21	=21	=21	=21	=21	=21	=21	=21	=21	=21
*tremolo	*	*tremolo	*	*	*	*	*	*	*	*	*	*	*	*	*	*	*	*	*	*	*	*	*
!	!	!	!	!	!	!	!	!LO:TX:t=P:problem=usunięte A	!	!	!	!	!	!	!	!	!	!	!	!	!	!	!
8D\L	.	8D\Lyy	.	8d/L 8F#/	.	8a/L 8f#/	.	8dd/L 8f#/	.	4.ryy	.	4.ryy	.	4.ryy	.	4.r	.	4.r	.	4.r	.	4.r	.
!	!	!	!	!	!	!	!	!LO:TX:t=P:problem=usunięte A	!	!	!	!	!	!	!	!	!	!	!	!	!	!	!
8D\	.	8D\yy	.	8d/ 8F#/	.	8a/ 8f#/	.	8dd/ 8f#/	.	.	.	.	.	.	.	.	.	.	.	.	.	.	.
!	!	!	!	!	!	!	!	!LO:TX:t=P:problem=usunięte A	!	!	!	!	!	!	!	!	!	!	!	!	!	!	!
8D\J	<	8D\Jyy	<	8d/J 8F#/	.	8a/J 8f#/	.	8dd/J 8f#/	.	.	.	.	.	.	.	.	.	.	.	.	.	.	.
*Xtremolo	*	*Xtremolo	*	*	*	*Xtremolo	*	*	*	*	*	*	*	*	*	*	*	*	*	*	*	*	*
=22	=22	=22	=22	=22	=22	=22	=22	=22	=22	=22	=22	=22	=22	=22	=22	=22	=22	=22	=22	=22	=22	=22	=22
8D\L	.	8D\Lyy	.	8c#/L 8E/	.	8a/L 8g/	.	16.ee\LL	<	4.ryy	.	4.ryy	.	4.ryy	.	4.r	.	4.r	.	4.r	.	4.r	.
.	.	.	.	.	.	.	.	32gg\JJk	.	.	.	.	.	.	.	.	.	.	.	.	.	.	.
8D\	.	8D\yy	.	8d/ 8F#/	.	8a/ 8f#/	.	8ff#\L	.	.	.	.	.	.	.	.	.	.	.	.	.	.	.
8F#\J	.	8F#\Jyy	.	8d/J 8F#/	.	8a/J 8d/	.	8dd\J	.	.	.	.	.	.	.	.	.	.	.	.	.	.	.
=23	=23	=23	=23	=23	=23	=23	=23	=23	=23	=23	=23	=23	=23	=23	=23	=23	=23	=23	=23	=23	=23	=23	=23
*	*	*	*	*	*	*	*	*	*	*	*	*	*	*	*	*	*	*^	*	*^	*	*	*
!	!LO:DY:rj	!	!LO:DY:yyrj	!	!LO:DY:rj	!	!	!	!LO:DY:rj	!	!	!	!	!	!	!	!	!	!	!	!	!	!	!	!LO:DY:rj
8G\L	f	8G\Lyy	fyy	8G/L	f	8b/L 8g/	.	8b\L	f	4.ryy	.	4.ryy	.	4.ryy	.	8r	.	8r	8ryy	.	8b/L	8r	.	8bb\L	f
8G\	.	8G\yy	.	8G/	.	8b/ 8g/	.	8ee\	.	.	.	.	.	.	.	8r	.	8r	8ryy	.	8ee/	8r	.	8eee\	.
!	!	!	!	!	!	!	!	!	!	!	!	!	!	!	!	!	!	!	!	!	!LO:TX:t=P:problem=wykreślona dynamika p	!	!	!	!
!	!	!	!	!	!	!	!	!	!	!	!	!	!	!	!	!	!	!	!	!LO:DY:rj	!LO:TX:t=P:problem=8bn poprawione na 8d	!	!	!	!
8G#X\J	.	8G#X\Jyy	.	8G#X/J	.	8b/J 8e/	.	8dd\J	.	.	.	.	.	.	.	8G#X\	.	8e/	8d\	f	8dd/J	8B/	.	8ddd\J	.
*	*	*	*	*	*	*	*	*	*	*	*	*	*	*	*	*	*	*v	*v	*	*	*	*	*	*
=24	=24	=24	=24	=24	=24	=24	=24	=24	=24	=24	=24	=24	=24	=24	=24	=24	=24	=24	=24	=24	=24	=24	=24	=24
!	!	!	!	!	!	!	!	!	!	!	!	!	!	!	!	!	!	!	!	!LO:TX:t=P:problem=8cc poprawione na 8c	!	!	!	!
.	.	.	.	.	.	.	.	8qdd/	.	.	.	.	.	.	.	.	.	.	.	8qdd/	.	.	(8qddd/	.
8A\	.	8A\yy	.	8e\ 8A\	.	8a/ 8g/	.	16.cc#\LL	.	4.ryy	.	4.ryy	.	4.ryy	.	8Gn\L	.	8e/L 8A/	.	16.cc#/LL	8A/L	.	16.ccc#\LL)	.
.	.	.	.	.	.	.	.	32a\JJk	.	.	.	.	.	.	.	.	.	.	.	32a/JJk	.	.	32aa\JJk|	.
!	!	!	!	!	!	!	!	!	!	!	!	!	!	!	!	!	!	!LO:SIC:v:n=1:s=8f#	!	!LO:TX:t=P:problem=8cc poprawione na 8c	!	!	!	!
8D\	.	8D\yy	.	8d\	.	8a/ 8f#/	.	8dd\	.	.	.	.	.	.	.	8F#\J	.	8e/J 8A/	.	8dd/	8A/J	.	8ddd\|	.
8r	.	8ryy	.	8r	.	8r	.	8r	.	.	.	.	.	.	.	8r	.	8r	.	8r	8r	.	8r	.
*	*	*	*	*	*	*	*	*	*	*	*	*	*	*	*	*	*	*	*	*v	*v	*	*	*
!!LO:PB:g=original
=25:|!|:	=25:|!|:	=25:|!|:	=25:|!|:	=25:|!|:	=25:|!|:	=25:|!|:	=25:|!|:	=25:|!|:	=25:|!|:	=25:|!|:	=25:|!|:	=25:|!|:	=25:|!|:	=25:|!|:	=25:|!|:	=25:|!|:	=25:|!|:	=25:|!|:	=25:|!|:	=25:|!|:	=25:|!|:	=25:|!|:	=25:|!|:
*	*	*	*	*	*	*	*	*	*	*	*	*	*	*	*	*	*	*^	*	*	*	*	*
!	!	!	!	!	!	!	!	!	!LO:DY:a	!	!	!	!	!	!	!	!	!	!	!	!LO:TX:t=P:problem=t. 25-28 – brak odnośnika do fl	!	!	!
!	!	!	!	!	!	!	!	!	!	!	!	!	!	!	!LO:DY:rj	!	!	!	!	!LO:DY:rj	!	!LO:DY:rj	!	!LO:DY:rj
8BB/	ff	8BB/yy	ffyy	8B/	.	8B/	.	8B/	ff	4.r	.	8BB/	.	8r	ff	8BB/	.	8r	8ryy	ff	8ryy	ffyy	8r	ff
!	!	!	!	!	!	!	!	!LO:TX:a:t=1.	!	!	!	!	!	!	!	!	!	!	!	!	!	!	!	!
8B\L	.	8B\Lyy	.	8b\L	.	8b/L 8f#/	.	8dd#X/L 8f#/ 8B/	.	.	.	8B\L	.	8d#X/L	.	8B\L	.	8f#/L	8d#X\L	.	8dd#X\Lyy	.	8ddd#X\L	.
8A\J	.	8A\Jyy	.	8a\J	.	8b/J 8f#/	.	8dd#/J 8f#/ 8B/	.	.	.	8A\J	.	8d#/J	.	8B\J	.	8f#/J	8d#\J	.	8dd#\Jyy	.	8ddd#\J	.
=26	=26	=26	=26	=26	=26	=26	=26	=26	=26	=26	=26	=26	=26	=26	=26	=26	=26	=26	=26	=26	=26	=26	=26	=26
16.G\LL	.	16.G\LLyy	.	16.g\LL 16.B\	.	16.b/LL 16.e/	.	16.ee\LL 16.b\ 16.e\ 16.G\	.	4.r	.	16.G\LL	.	16.e/LL	.	16.B\LL	.	16.e/LL	16.e\LL	.	16.ee\LLyy	.	16.eee\LL	.
!	!	!	!	!	!	!	!	!LO:TX:a:t=2.	!	!	!	!	!	!	!	!	!	!	!	!	!	!	!	!
32F#\JJk	.	32F#\JJkyy	.	32f#\JJk 32B\	.	32dd#X/JJk 32f#/	.	32ff#\JJk	.	.	.	32F#\JJk	.	32f#/JJk	.	32B\JJk	.	32f#/JJk	32d#X\JJk	.	32ff#\JJkyy	.	32fff#\JJk	.
8E\L	.	8E\Lyy	.	8e\L 8B\	.	8ee/L 8g/	.	8gg\L	.	.	.	8E\L	.	8g/L	.	8B\L	.	8e/L	8e\L	.	8gg\Lyy	.	8ggg\L	.
8G\J	.	8G\Jyy	.	8g\J 8B\	.	8b/J 8e/	.	8ee\J	.	.	.	8G\J	.	8e/J	.	8B\J	.	8e/J	8e\J	.	8ee\Jyy	.	8eee\J	.
*	*	*	*	*	*	*	*	*	*	*	*	*	*	*	*	*	*	*v	*v	*	*	*	*	*
=27	=27	=27	=27	=27	=27	=27	=27	=27	=27	=27	=27	=27	=27	=27	=27	=27	=27	=27	=27	=27	=27	=27	=27
8AA/	.	8AA/yy	.	8A/	.	8A/	.	8A/	.	8r	.	8AA/	.	8r	.	8r	.	8r	.	8ryy	.	8r	.
8A\L	.	8A\Lyy	.	8a\L	.	8a/L 8e/	.	8cc#/L 8e/ 8A/	.	8AA/L	.	8A\L	.	8c#/L	.	8A\L	.	8e/L 8A/	.	8cc#\Lyy	.	8ccc#\L	.
8G\J	.	8G\Jyy	.	8g\J	.	8a/J 8e/	.	8cc#/J 8e/ 8A/	.	8AA/J	.	8G\J	.	8c#/J	.	8A\J	.	8e/J 8A/	.	8cc#\Jyy	.	8ccc#\J	.
=28	=28	=28	=28	=28	=28	=28	=28	=28	=28	=28	=28	=28	=28	=28	=28	=28	=28	=28	=28	=28	=28	=28	=28
16.F#\LL	.	16.F#\LLyy	.	16.f#/LL 16.A/	.	16.a/LL 16.d/	.	16.dd/LL 16.d/ 16.F#/	.	16.D/LL	.	16.F#\LL	.	16.d/LL	.	16.A\LL	.	16.f#\LL 16.d\	.	16.dd\LLyy	.	16.ddd\LL	.
32E\JJk	.	32E\JJkyy	.	32e/JJk 32A/	.	32cc#X/JJk 32e/	.	32ee/JJk	.	32AA/JJk	.	32E\JJk	.	32e/JJk	.	32A\JJk	.	32e\JJk 32A\	.	32ee\JJkyy	.	32eee\JJk	.
8D\L	.	8D\Lyy	.	8d/L 8A/	.	8dd/L 8f#/	.	8ff#\L	.	8D/L	.	8D\L	.	8f#/L	.	8A\L	.	8d/L 8F#/	.	8ff#\Lyy	.	8fff#\L	.
8F#\J	.	8F#\Jyy	.	8f#/J 8A/	.	8a/J 8d/	.	8dd\J	.	8D/J	.	8F#\J	.	8d/J	.	8A\J	.	8f#/J 8d/	.	8dd\Jyy	.	8ddd\J	.
=29	=29	=29	=29	=29	=29	=29	=29	=29	=29	=29	=29	=29	=29	=29	=29	=29	=29	=29	=29	=29	=29	=29	=29
*	*	*	*	*	*	*	*	*	*	*	*	*	*	*	*	*	*	*^	*	*	*	*	*
!	!	!	!	!LO:TX:t=P::problem=t. 29-30 zapisane odnośnikiem&colon; 1. 2. (t. 25-26)	!	!LO:TX:t=P::problem=t. 29-30 zapisane odnośnikiem&colon; 1. 2. (t. 25-26)	!	!	!	!LO:TX:t=P::problem=t. 29-30 zapisane odnośnikiem&colon; 1. 2. (t. 25-26)	!	!LO:TX:t=P::problem=t. 29-30 zapisane odnośnikiem&colon; 1. 2. (t. 25-26)	!	!LO:TX:t=P::problem=t. 29-30 zapisane odnośnikiem&colon; 1. 2. (t. 25-26)	!	!LO:TX:t=P::problem=t. 29-30 zapisane odnośnikiem&colon; 1. 2. (t. 25-26)	!	!LO:TX:t=P::problem=t. 29-30 zapisane odnośnikiem&colon; 1. 2. (t. 25-26)	!	!	!	!	!	!
8BB/	.	8BB/yy	.	8B/yy	.	8B/yy	.	8B/	.	4.ryy	.	8BB/yy	.	8ryy	.	8BB/yy	.	8ryy	8ryy	.	8ryy	.	8r	.
!	!	!	!	!	!	!	!	!LO:TX:a:t=1.	!	!	!	!	!	!	!	!	!	!	!	!	!	!	!	!
8B\L	.	8B\Lyy	.	8b\Lyy	.	8byy/L 8f#/yy	.	8dd#X/L 8f#/ 8B/	.	.	.	8B\Lyy	.	8d#X/Lyy	.	8B\Lyy	.	8f#/Lyy	8d#X\Lyy	.	8dd#X\Lyy	.	8ddd#X\L	.
8A\J	.	8A\Jyy	.	8a\Jyy	.	8byy/J 8f#/yy	.	8dd#/J 8f#/ 8B/	.	.	.	8A\Jyy	.	8d#/Jyy	.	8B\Jyy	.	8f#/Jyy	8d#\Jyy	.	8dd#\Jyy	.	8ddd#\J	.
=30	=30	=30	=30	=30	=30	=30	=30	=30	=30	=30	=30	=30	=30	=30	=30	=30	=30	=30	=30	=30	=30	=30	=30	=30
16.G\LL	.	16.G\LLyy	.	16.gyy\LL 16.B\yy	.	16.byy/LL 16.e/yy	.	16.ee/LL 16.b/ 16.e/ 16.G/	.	4.ryy	.	16.G\LLyy	.	16.e/LLyy	.	16.B\LLyy	.	16.e/LLyy	16.e\LLyy	.	16.ee\LLyy	.	16.eee\LL	.
!	!	!	!	!	!	!	!	!LO:TX:a:t=2.	!	!	!	!	!	!	!	!	!	!	!	!	!	!	!	!
32F#\JJk	.	32F#\JJkyy	.	32f#yy\JJk 32B\yy	.	32dd#Xyy/JJk 32f#/yy	.	32ff#/JJk	.	.	.	32F#\JJkyy	.	32f#/JJkyy	.	32B\JJkyy	.	32f#/JJkyy	32d#X\JJkyy	.	32ff#\JJkyy	.	32fff#\JJk	.
8E\L	.	8E\Lyy	.	8eyy\L 8B\yy	.	8eeyy/L 8g/yy	.	8gg\L	.	.	.	8E\Lyy	.	8g/Lyy	.	8B\Lyy	.	8e/Lyy	8e\Lyy	.	8gg\Lyy	.	8ggg\L	.
8G\J	.	8G\Jyy	.	8gyy\J 8B\yy	.	8byy/J 8e/yy	.	8ee\J	.	.	.	8G\Jyy	.	8e/Jyy	.	8B\Jyy	.	8e/Jyy	8e\Jyy	.	8ee\Jyy	.	8eee\J	.
*	*	*	*	*	*	*	*	*	*	*	*	*	*	*	*	*	*	*v	*v	*	*	*	*	*
!!LO:PB:g=original
=31	=31	=31	=31	=31	=31	=31	=31	=31	=31	=31	=31	=31	=31	=31	=31	=31	=31	=31	=31	=31	=31	=31	=31
*	*	*	*	*	*	*	*	*	*	*	*	*	*	*^	*	*	*	*	*	*^	*	*	*
*	*	*	*	*tremolo	*	*tremolo	*	*	*	*	*	*	*	*	*	*	*	*	*	*	*	*	*	*	*
!LO:TX:t=P:problem=mixed beam	!	!LO:TX:t=P:problem=mixed beam	!	!	!	!	!	!	!	!	!	!	!	!	!	!	!	!	!	!	!	!	!	!	!
8A\L	.	8A\Lyy	.	8c#/L 8E/	.	8a/L 8g/	.	16.bb\LL	.	8r	.	4.AA/	.	16.b/LL	4.c#\	.	4.c#\	.	4.e/ 4.A/	.	16.b/LL	4.g#\yy	.	16.bb\LL	.
.	.	.	.	.	.	.	.	32aa\K	.	.	.	.	.	32a/K	.	.	.	.	.	.	32a/K	.	.	32aa\K	.
8A\	.	8A\yy	.	8c#/ 8E/	.	8a/ 8g/	.	16.gg#X\	.	8AA/L	.	.	.	16.g#X/	.	.	.	.	.	.	16.g#/	.	.	16.gg#X\	.
.	.	.	.	.	.	.	.	32aa\K	.	.	.	.	.	32a/K	.	.	.	.	.	.	32a/JJk	.	.	32aa\K	.
8AA/J	.	8AA/Jyy	.	8c#/J 8E/	.	8a/J 8g/	.	16.ggn\	.	8AA/J	.	.	.	16.gn/	.	.	.	.	.	.	16.gg/LL	.	.	16.gggn\	.
.	.	.	.	.	.	.	.	32ee\JJk	.	.	.	.	.	32e/JJk	.	.	.	.	.	.	32ee/JJk	.	.	32eee\JJk	.
*	*	*	*	*Xtremolo	*	*Xtremolo	*	*	*	*	*	*	*	*	*	*	*	*	*	*	*	*	*	*	*
=32	=32	=32	=32	=32	=32	=32	=32	=32	=32	=32	=32	=32	=32	=32	=32	=32	=32	=32	=32	=32	=32	=32	=32	=32	=32
!	!	!	!	!	!	!	!	!LO:TX:t=P:problem=mixed beam	!	!	!	!	!	!	!	!	!LO:TX:t=P:problem=mixed beam	!	!	!	!	!	!	!	!
8D\L	.	8D\Lyy	.	8d/L 8F#/	.	8a/L 8f#/	.	8dd\L	.	8D/L	.	8D/L	.	8d/L	8d\L	.	8d\L	.	8d/L 8F#/	.	8dd/L	8f#\L	.	8ddd\L	.
8d\J	.	8d\Jyy	.	8d/J 8F#/	.	8a/J 8f#/	.	8d/J	.	8D/J	.	8D/J	.	8d/J	8d\J	.	8D/J	.	8d/J 8F#/	.	8dd/J	8f#\J	.	8dd\J	.
8r	.	8ryy	.	8r	.	8r	.	8r	.	8r	.	8r	.	8r	8ryy	.	8r	.	8r	.	8r	8ryy	.	8r	.
*	*	*	*	*	*	*	*	*	*	*	*	*	*	*v	*v	*	*	*	*	*	*v	*v	*	*	*
=33||	=33||	=33||	=33||	=33||	=33||	=33||	=33||	=33||	=33||	=33||	=33||	=33||	=33||	=33||	=33||	=33||	=33||	=33||	=33||	=33||	=33||	=33||	=33||
*k[cnf#]	*	*k[cnf#]	*	*k[cnf#]	*	*k[cnf#]	*	*k[cnf#]	*	*	*	*k[cnf#]	*	*k[cnf#]	*	*k[cnf#]	*	*	*	*k[cnf#]	*	*k[cnf#]	*
*	*	*	*	*	*	*	*	*	*	*	*	*	*	*	*	*	*	*	*	*^	*	*	*
!	!	!	!	!	!	!	!	!	!	!	!	!	!	!	!	!	!	!	!	!	!	!	!LO:TX:t=P::problem=wykreślony znak repetycji&colon; fl, cl, cor, fag	!
!	!	!	!	!	!	!	!	!	!	!	!	!	!	!	!	!	!	!	!	!	!	!LO:DY:rj	!	!LO:DY:rj
8G\	p	8G\yy	pyy	8r	p	8r	.	4.r	.	4.ryy	.	4.r	.	(8b\L 8g\	.	4.r	.	4.r	.	(8gg/L	4.r	p	(8bb\L	p
8r	.	8ryy	.	8d\L 8G\	.	8g/L 8B/	.	.	.	.	.	.	.	8dd\ 8b\)	.	.	.	.	.	8bb/)	.	.	8ddd\)	.
8r	.	8ryy	.	8d\J 8G\	.	8g/J 8B/	.	.	.	.	.	.	.	8b\J 8g'\	.	.	.	.	.	8gg'/J	.	.	8bb'\J	.
=34	=34	=34	=34	=34	=34	=34	=34	=34	=34	=34	=34	=34	=34	=34	=34	=34	=34	=34	=34	=34	=34	=34	=34	=34
8GG/	.	8GG/yy	.	16.e\LL 16.c\	.	16.cc/LL 16.e/ 16.G/	.	16.ee\LL 16.cc\ 16.g\ 16.c\	.	4.ryy	.	4.r	.	16.ee\LL 16.cc\|	.	4.r	.	4.r	.	16.ee/LL	4.r	.	16.ccc\LL	.
.	.	.	.	32f#\JJk 32d\	.	32dd/JJk	.	32ff#\JJk	.	.	.	.	.	32ff#\JJk 32dd\|	.	.	.	.	.	32ff#/JJk	.	.	32ddd\JJk	.
8r	.	8ryy	.	8g\L 8e\	.	8ee/L	.	8gg\L	.	.	.	.	.	8gg\L 8ee\|	.	.	.	.	.	8gg/L	.	.	8eee\L	.
8r	.	8ryy	.	8e\J 8c\	.	8cc/J	.	8ee\J	.	.	.	.	.	8ee\J 8cc\|	.	.	.	.	.	8ee/J	.	.	8ccc\J	.
=35	=35	=35	=35	=35	=35	=35	=35	=35	=35	=35	=35	=35	=35	=35	=35	=35	=35	=35	=35	=35	=35	=35	=35	=35
8G\	.	8G\yy	.	8r	.	8r	.	4.r	.	4.ryy	.	4.r	.	(8b/L 8g/	.	4.r	.	4.r	.	(8gg/L	4.r	.	(8bb\L	.
8r	.	8ryy	.	8d/L 8G/	.	8g/L 8B/	.	.	.	.	.	.	.	8dd/ 8b/)	.	.	.	.	.	8bb/)	.	.	8ddd\)	.
8r	.	8ryy	.	8d/J 8G/	.	8g/J 8B/	.	.	.	.	.	.	.	8b/J 8g'/	.	.	.	.	.	8gg'/J	.	.	8bb'\J	.
=36	=36	=36	=36	=36	=36	=36	=36	=36	=36	=36	=36	=36	=36	=36	=36	=36	=36	=36	=36	=36	=36	=36	=36	=36
8D\	.	8D\yy	.	8r	.	16.a/LL	.	16.cc/LL	.	4.ryy	.	4.r	.	16.cc/LL 16.a/	.	4.r	.	4.r	.	16.aa/LL	4.r	.	16.ccc\LL	.
.	.	.	.	.	.	32f#/JJk	.	32a/JJk	.	.	.	.	.	32a/JJk 32f#/	.	.	.	.	.	32ff#/JJk	.	.	32aa\JJk	.
8r	.	8ryy	.	8d\L 8A\	.	8d/L	.	8f#/L	.	.	.	.	.	8f#/L 8d/	.	.	.	.	.	8dd/L	.	.	8ff#\L	.
8r	.	8ryy	.	8d\J 8A\	.	8f#/J 8c/	.	8d/J	.	.	.	.	.	8d/J	.	.	.	.	.	8cc/J	.	.	8dd\J	.
!!LO:PB:g=original
=37	=37	=37	=37	=37	=37	=37	=37	=37	=37	=37	=37	=37	=37	=37	=37	=37	=37	=37	=37	=37	=37	=37	=37	=37
8G\	.	8G\yy	.	8r	.	8r	.	4.r	.	4.ryy	.	4.r	.	8b/L 8g/	.	4.r	.	4.r	.	8gg/L	4.r	.	(8bb\L	.
8r	.	8ryy	.	8d\L 8G\	.	8g/L 8B/	.	.	.	.	.	.	.	8dd/ 8b/	.	.	.	.	.	8bb/	.	.	(8ddd\)	.
8r	.	8ryy	.	8d\J 8G\	.	8g/J 8B/	.	.	.	.	.	.	.	8b/J 8g/	.	.	.	.	.	8gg/J	.	.	8bb\J)	.
=38	=38	=38	=38	=38	=38	=38	=38	=38	=38	=38	=38	=38	=38	=38	=38	=38	=38	=38	=38	=38	=38	=38	=38	=38
8GG/	.	8GG/yy	.	16.e\LL 16.c\	.	16.cc/LL 16.e/ 16.G/	.	16.ee\LL 16.cc\ 16.g\ 16.c\	.	4.ryy	.	4.r	.	16.ee\LL 16.cc\	.	4.r	.	4.r	.	16.ee/LL	4.r	.	16.ccc\LL	.
.	.	.	.	32f#\JJk 32d\	.	32dd/JJk	.	32ff#\JJk	.	.	.	.	.	32ff#\JJk 32dd\	.	.	.	.	.	32ff#/JJk	.	.	32ddd\JJk	.
8r	.	8ryy	.	8g\L 8e\	.	8ee\L	.	8gg\L	.	.	.	.	.	8gg\L 8ee\	.	.	.	.	.	8gg/L	.	.	8eee\L	.
8r	.	8ryy	.	8e\J 8c\	.	8cc\J	.	8ee\J	.	.	.	.	.	16ff#\L 16dd\	.	.	.	.	.	8ee/J	.	.	8ccc\J	.
.	.	.	.	.	.	.	.	.	.	.	.	.	.	16ee\JJ 16cc\	.	.	.	.	.	.	.	.	.	.
=39	=39	=39	=39	=39	=39	=39	=39	=39	=39	=39	=39	=39	=39	=39	=39	=39	=39	=39	=39	=39	=39	=39	=39	=39
*	*	*	*	*	*	*	*	*	*	*	*	*	*	*	*	*^	*	*^	*	*	*	*	*	*
8D\	.	8D\yy	.	8r	.	8r	.	(16dd\LL	.	4.ryy	.	4.r	.	8dd/L	.	4.r	4.D\	.	4.f#/ 4.A/	4.r	.	4.r	4.c/	.	16dd'\LL	.
.	.	.	.	.	.	.	.	16ddd\)	.	.	.	.	.	.	.	.	.	.	.	.	.	.	.	.	16ddd'\	.
8r	.	8ryy	.	8d\L 8A\	.	8f#/L 8c/	.	(16ccc\	.	.	.	.	.	(16cc/L	.	.	.	.	.	.	.	.	.	.	(16ccc\	.
.	.	.	.	.	.	.	.	16aa\)	.	.	.	.	.	16a/)	.	.	.	.	.	.	.	.	.	.	16aa\)	.
8r	.	8ryy	.	8d\J 8A\	.	8f#/J 8c/	.	16ff#'\	.	.	.	.	.	16f#'/	.	.	.	.	.	.	.	.	.	.	16ff#'\	.
.	.	.	.	.	.	.	.	16dd'\JJ	.	.	.	.	.	16d'/JJ	.	.	.	.	.	.	.	.	.	.	16dd'\JJ	.
*	*	*	*	*	*	*	*	*	*	*	*	*	*	*	*	*	*	*	*v	*v	*	*	*	*	*	*
=40	=40	=40	=40	=40	=40	=40	=40	=40	=40	=40	=40	=40	=40	=40	=40	=40	=40	=40	=40	=40	=40	=40	=40	=40	=40
!LO:TX:t=P:problem=mixed beam	!	!LO:TX:t=P:problem=mixed beam	!	!	!	!	!	!	!	!	!	!	!	!	!	!LO:TX:t=P:problem=mixed beam	!	!	!	!	!	!	!	!	!
8GG/L	.	8GG/Lyy	.	8d/ 8G/	.	8g/ 8B/	.	8gg\	.	4.ryy	.	4.r	.	8g/	.	8GG/L	4.r	.	8g/L 8B/	.	4.r	8B/L	.	8gg\	.
8G\J	.	8G\Jyy	.	8d/ 8G/	.	8g/ 8B/	.	8g/	.	.	.	.	.	8g/	.	8G\J	.	.	8g/J 8B/	.	.	8B/J	.	8g/	.
8r	.	8ryy	.	8r	.	8r	.	8r	.	.	.	.	.	8r	.	8r	.	.	8r	.	.	8r	.	8r	.
*	*	*	*	*	*	*	*	*	*	*	*	*	*	*	*	*v	*v	*	*	*	*v	*v	*	*	*
=41:|!|:	=41:|!|:	=41:|!|:	=41:|!|:	=41:|!|:	=41:|!|:	=41:|!|:	=41:|!|:	=41:|!|:	=41:|!|:	=41:|!|:	=41:|!|:	=41:|!|:	=41:|!|:	=41:|!|:	=41:|!|:	=41:|!|:	=41:|!|:	=41:|!|:	=41:|!|:	=41:|!|:	=41:|!|:	=41:|!|:	=41:|!|:
*	*	*	*	*	*	*	*	*	*	*	*	*	*	*	*	*tremolo	*	*tremolo	*	*	*	*	*
!	!LO:DY:rj	!	!LO:DY:rj	!	!	!	!	!	!LO:DY:rj	!	!	!	!	!	!	!	!	!	!	!	!	!	!
8E\L	ff	8E\Lyy	ffyy	(16B\LL 16E\	.	(16e/LL 16G/	.	8ee/L 8b/ 8e/ 8G/	ff	4.ryy	.	4.E\	.	8e/L	.	8E\L	.	8g\L 8e\	.	4.ryy	.	4.ryy	.
.	.	.	.	16e\JJ)	.	16g/JJ)	.	.	.	.	.	.	.	.	.	.	.	.	.	.	.	.	.
*	*	*	*	*tremolo	*	*tremolo	*	*	*	*	*	*	*	*	*	*	*	*	*	*	*	*	*
8E\	.	8E\yy	.	16g\LL 16B\	.	16b/LL 16e/	.	8gg/ 8b/ 8e/ 8G/	.	.	.	.	.	8g/	.	8E\	.	8g\ 8e\	.	.	.	.	.
.	.	.	.	16g\ 16B\	.	16b/ 16e/	.	.	.	.	.	.	.	.	.	.	.	.	.	.	.	.	.
8E\J	.	8E\Jyy	.	16g\ 16B\	.	16b/ 16e/	.	8ee/J 8b/ 8e/ 8G/	.	.	.	.	.	8e/J	.	8E\J	.	8g\J 8e\	.	.	.	.	.
.	.	.	.	16g\JJ 16B\	.	16b/JJ 16e/	.	.	.	.	.	.	.	.	.	.	.	.	.	.	.	.	.
=42	=42	=42	=42	=42	=42	=42	=42	=42	=42	=42	=42	=42	=42	=42	=42	=42	=42	=42	=42	=42	=42	=42	=42
*tremolo	*	*tremolo	*	*	*	*	*	*	*	*	*	*	*	*	*	*	*	*	*	*	*	*	*
8BB/L	.	8BB/Lyy	.	16F#/LL	.	(16d#X/LL	.	16.ff#\LL	.	4.ryy	.	4.BB/	.	16.f#/LL	.	8BB/L	.	8f#\L 8d#X\	.	4.ryy	.	4.ryy	.
.	.	.	.	16B/JJ	.	16f#/JJ)	.	.	.	.	.	.	.	.	.	.	.	.	.	.	.	.	.
.	.	.	.	.	.	.	.	32dd#X\JJk	.	.	.	.	.	32d#X/JJk	.	.	.	.	.	.	.	.	.
!	!	!	!	!	!	!	!	!	!	!	!	!	!	!LO:TX:t=P:problem=mixed beam	!	!	!	!	!	!	!	!	!
8BB/	.	8BB/yy	.	16d#X\LL 16F#\	.	16b/LL 16f#/	.	8b\L	.	.	.	.	.	8B/L	.	8BB/	.	8f#\ 8d#\	.	.	.	.	.
.	.	.	.	16d#\ 16F#\	.	16b/ 16f#/	.	.	.	.	.	.	.	.	.	.	.	.	.	.	.	.	.
8BB/J	.	8BB/Jyy	.	16d#\ 16F#\	.	16b/ 16f#/	.	8bb\J 8b\	.	.	.	.	.	8b\J	.	8BB/J	.	8f#\J 8d#\	.	.	.	.	.
.	.	.	.	16d#\JJ 16F#\	.	16b/JJ 16f#/	.	.	.	.	.	.	.	.	.	.	.	.	.	.	.	.	.
*	*	*	*	*	*	*	*	*	*	*	*	*	*	*	*	*Xtremolo	*	*Xtremolo	*	*	*	*	*
!!LO:PB:g=original
=43	=43	=43	=43	=43	=43	=43	=43	=43	=43	=43	=43	=43	=43	=43	=43	=43	=43	=43	=43	=43	=43	=43	=43
*	*	*	*	*	*	*	*	*	*	*	*	*	*	*	*	*	*	*^	*	*^	*	*	*
*	*	*	*	*	*	*	*	*	*	*	*	*^	*	*	*	*	*	*	*	*	*	*	*	*	*
8E\L	.	8E\Lyy	.	8e\L	.	8g/L 8B/	.	16.gg\LL	.	4.r	.	4.E\	8E\	.	16.g/LL	.	4.B\ 4.E\	.	4.g/	4.e\	.	16.gg/LL	4.b\	.	16.ggg\LL	.
.	.	.	.	.	.	.	.	32ff#\K	.	.	.	.	.	.	32f#/K	.	.	.	.	.	.	32ff#/K	.	.	32fff#\K	.
8E\	.	8E\yy	.	8e\	.	8g/ 8B/	.	16.ee\	.	.	.	.	8r	.	16.e/	.	.	.	.	.	.	16.ee/	.	.	16.eee\	.
.	.	.	.	.	.	.	.	32ff#\K	.	.	.	.	.	.	32f#/K	.	.	.	.	.	.	32ff#/K	.	.	32fff#\K	.
8E\J	.	8E\Jyy	.	8e\J	.	8g/J 8B/	.	16.gg\	.	.	.	.	8r	.	16.g/	.	.	.	.	.	.	16.gg/	.	.	16.ggg\	.
.	.	.	.	.	.	.	.	32ee\JJk	.	.	.	.	.	.	32e/JJk	.	.	.	.	.	.	32ee/JJk	.	.	32eee\JJk	.
*	*	*	*	*	*	*	*	*	*	*	*	*v	*v	*	*	*	*	*	*	*	*	*	*	*	*	*
=44	=44	=44	=44	=44	=44	=44	=44	=44	=44	=44	=44	=44	=44	=44	=44	=44	=44	=44	=44	=44	=44	=44	=44	=44	=44
!	!	!	!	!	!	!	!	!	!	!	!	!LO:TX:t=P:problem=usunięta pauza całotaktowa	!	!	!	!	!	!	!	!	!	!	!	!	!
8BB/L	.	8BB/Lyy	.	8d#X\L	.	8f#/L 8B/	.	16.ff#\LL	.	4.r	.	4.BB/	.	16.f#/LL	.	4.B/ 4.BB/	.	4.f#/	4.d#X\	.	16.ff#/LL	4.b\	.	16.fff#\LL	.
.	.	.	.	.	.	.	.	32dd#X\JJk	.	.	.	.	.	32d#X/JJk	.	.	.	.	.	.	32dd#X/JJk	.	.	32ddd#X\JJk	.
8BB/	.	8BB/yy	.	8d#\	.	8f#/ 8B/	.	4b\	.	.	.	.	.	4B/	.	.	.	.	.	.	4b/	.	.	4bb\	.
8BB/J	.	8BB/Jyy	.	8d#\J	.	8f#/J 8B/	.	.	.	.	.	.	.	.	.	.	.	.	.	.	.	.	.	.	.
*Xtremolo	*	*Xtremolo	*	*Xtremolo	*	*Xtremolo	*	*	*	*	*	*	*	*	*	*	*	*	*	*	*	*	*	*	*
*	*	*	*	*	*	*	*	*	*	*	*	*	*	*	*	*	*	*v	*v	*	*	*	*	*	*
=45	=45	=45	=45	=45	=45	=45	=45	=45	=45	=45	=45	=45	=45	=45	=45	=45	=45	=45	=45	=45	=45	=45	=45	=45
8D\	.	8D\yy	.	8r	.	8r	.	8dd\	.	8r	.	8D\	.	8d/	.	8r	.	8r	.	4.r	8r	.	4.r	.
8r	.	8ryy	.	8f#\L 8A\	.	8ff#\ 8a\ 8d\	.	8ddd\ 8dd\ 8d\	.	8D\L	.	8r	.	8dd\L	.	8c\L	.	8d/L 8A/	.	.	8f#\L	.	.	.
8r	.	8ryy	.	8f#\J 8A\	.	8dd/ 8d/	.	8ccc\	.	8D\J	.	8r	.	8cc\J	.	8c\J	.	8d/J 8A/	.	.	8f#\J	.	.	.
=46	=46	=46	=46	=46	=46	=46	=46	=46	=46	=46	=46	=46	=46	=46	=46	=46	=46	=46	=46	=46	=46	=46	=46	=46
8GG/	.	8GG/yy	.	8r	.	8r	.	16.bb\LL	.	8r	.	8G\	.	16.b/LL	.	8r	.	8r	.	4.r	8r	.	4.r	.
.	.	.	.	.	.	.	.	32aa\JJk	.	.	.	.	.	32a/JJk	.	.	.	.	.	.	.	.	.	.
8r	.	8ryy	.	8g\L 8B\	.	8gg\ 8b\ 8d\	.	8gg\L	.	8D\L	.	8r	.	8g/L	.	8B\L	.	8d/L 8G/	.	.	8g\L	.	.	.
8r	.	8ryy	.	8g\J 8B\	.	8dd/ 8d/	.	8bb\J	.	8D\J	.	8r	.	8b/J	.	8B\J	.	8d/J 8G/	.	.	8g\J	.	.	.
=47	=47	=47	=47	=47	=47	=47	=47	=47	=47	=47	=47	=47	=47	=47	=47	=47	=47	=47	=47	=47	=47	=47	=47	=47
8D\	.	8D\yy	.	8r	.	8r	.	16.aa\LL	.	8D\L	.	4.D\	.	16.a/LL|	.	4.c\	.	4.d/ 4.A/	.	16.aa/LL	4.f#\	.	16.aaa\LL|	.
.	.	.	.	.	.	.	.	32ff#\JJk	.	.	.	.	.	32f#/JJk|	.	.	.	.	.	32ff#/JJk	.	.	32fff#\JJk|	.
8r	.	8ryy	.	8d\L 8A\	.	8ccn/L 8d/	.	8dd\L	.	8D\	.	.	.	8d'/L	.	.	.	.	.	8dd/L	.	.	8ddd'\L	.
8r	.	8ryy	.	8d\J 8A\	.	8cc/J 8d/	.	16ee\L	.	8D\J	.	.	.	(16e/L	.	.	.	.	.	16ee/L	.	.	(16eee\L	.
.	.	.	.	.	.	.	.	16ff#\JJ	.	.	.	.	.	16f#/JJ)	.	.	.	.	.	16ff#/JJ	.	.	16fff#\JJ)	.
=48	=48	=48	=48	=48	=48	=48	=48	=48	=48	=48	=48	=48	=48	=48	=48	=48	=48	=48	=48	=48	=48	=48	=48	=48
!LO:TX:t=P:problem=mixed beam	!	!LO:TX:t=P:problem=mixed beam	!	!	!	!	!	!	!	!	!	!	!	!	!	!	!	!	!	!	!	!	!	!
8GG/L	.	8GG/Lyy	.	8d\ 8G\	.	8b/ 8d/	.	8gg\	.	8D\L	.	8G\L	.	8g/L	.	8B\L	.	8d/L 8G/	.	8gg/	8g\	.	8ggg\	.
8G\J	.	8G\Jyy	.	8d\ 8G\	.	8g/ 8B/	.	8g/ 8G/	.	8D\J	.	8G\J	.	8g/J	.	8B\J	.	8d/J 8G/	.	8g/	8g\	.	8gg\	.
8r	.	8ryy	.	8r	.	8r	.	8r	.	8r	.	8r	.	8r	.	8r	.	8r	.	8r	8ryy	.	8r	.
!!LO:PB:g=original
=49:|!|:	=49:|!|:	=49:|!|:	=49:|!|:	=49:|!|:	=49:|!|:	=49:|!|:	=49:|!|:	=49:|!|:	=49:|!|:	=49:|!|:	=49:|!|:	=49:|!|:	=49:|!|:	=49:|!|:	=49:|!|:	=49:|!|:	=49:|!|:	=49:|!|:	=49:|!|:	=49:|!|:	=49:|!|:	=49:|!|:	=49:|!|:	=49:|!|:
*	*	*	*	*	*	*	*	*	*	*	*	*	*	*	*	*	*	*^	*	*	*	*	*	*
!	!	!	!	!	!	!	!	!	!	!	!	!	!LO:DY:rj	!	!	!	!	!LO:TX:t=P:problem=4.dd ee poprawione na 4.cc dd	!	!	!	!	!	!	!
8G#X\	.	8G#X\yy	.	8r	.	8r	.	8.ee\L	.	4.r	.	4.G#X\	p	4.r	.	8.e\L	.	4.e/	4.d\	.	4.r	(>4.B\	.	4.r	.
8r	.	8ryy	.	8e\L 8B\	.	8b/L 8d/	.	.	.	.	.	.	.	.	.	.	.	.	.	.	.	.	.	.	.
.	.	.	.	.	.	.	.	16dd#X\Jk	.	.	.	.	.	.	.	16d#X\Jk	.	.	.	.	.	.	.	.	.
8r	.	8ryy	.	8e\J 8B\	.	8b/J 8d/	.	16ee\LL	.	.	.	.	.	.	.	16e\LL	.	.	.	.	.	.	.	.	.
.	.	.	.	.	.	.	.	16ddn\JJ	.	.	.	.	.	.	.	16dn\JJ	.	.	.	.	.	.	.	.	.
*	*	*	*	*	*	*	*	*	*	*	*	*	*	*	*	*	*	*v	*v	*	*	*	*	*	*
=50	=50	=50	=50	=50	=50	=50	=50	=50	=50	=50	=50	=50	=50	=50	=50	=50	=50	=50	=50	=50	=50	=50	=50	=50
!	!	!	!	!	!	!	!	!	!	!	!	!	!	!	!	!	!	!LO:TX:t=P:problem=8f ee poprawione na 8g dd	!	!LO:TX:t=P:problem=8d poprawione na 8e-	!	!	!	!
8A\	.	8A\yy	.	8r	.	8r	.	16.cc\LL	.	4.r	.	8A\	.	4.r	.	16.cn\LL	.	8e/ 8A/	.	4.r	8c#X\)	.	4.r	.
.	.	.	.	.	.	.	.	32b\JJk	.	.	.	.	.	.	.	32B\JJk	.	.	.	.	.	.	.	.
8r	.	8ryy	.	8e\L 8A\	.	8a/L 8c/	.	8a\L	.	.	.	8r	.	.	.	8A\L	.	8r	.	.	8r	.	.	.
8r	.	8ryy	.	8e\J 8A\	.	8a/J 8c/	.	8cc\J	.	.	.	8r	.	.	.	8c\J	.	8r	.	.	8r	.	.	.
=51	=51	=51	=51	=51	=51	=51	=51	=51	=51	=51	=51	=51	=51	=51	=51	=51	=51	=51	=51	=51	=51	=51	=51	=51
8F#\	.	8F#\yy	.	8r	.	8r	.	8.dd\L	.	4.r	.	4.F#\	.	4.r	.	8.d\L	.	4.d/ 4.A/	.	4.r	4.cX\	.	4.r	.
8r	.	8ryy	.	8d\L 8A\	.	8a/L 8c/	.	.	.	.	.	.	.	.	.	.	.	.	.	.	.	.	.	.
.	.	.	.	.	.	.	.	16cc#X\Jk	.	.	.	.	.	.	.	16c#X\Jk	.	.	.	.	.	.	.	.
!	!	!	!	!	!	!	!	!LO:N:vis=8	!	!	!	!	!	!	!	!	!	!	!	!	!	!	!	!
8r	.	8ryy	.	8d\J 8A\	.	8a/J 8c/	.	16dd\LL	.	.	.	.	.	.	.	16d\LL	.	.	.	.	.	.	.	.
!	!	!	!	!	!	!	!	!LO:N:vis=8	!	!	!	!	!	!	!	!	!	!	!	!	!	!	!	!
.	.	.	.	.	.	.	.	16ccn\JJ	.	.	.	.	.	.	.	16cn\JJ	.	.	.	.	.	.	.	.
=52	=52	=52	=52	=52	=52	=52	=52	=52	=52	=52	=52	=52	=52	=52	=52	=52	=52	=52	=52	=52	=52	=52	=52	=52
8Gn\	.	8Gn\yy	.	8r	.	8r	.	16.b/LL	.	4.r	.	8Gn\	.	4.r	.	16.B\LL	.	8d/ 8G/	.	4.r	8B\	.	4.r	.
.	.	.	.	.	.	.	.	32a/JJk	.	.	.	.	.	.	.	32A\JJk	.	.	.	.	.	.	.	.
8r	.	8ryy	.	8d\L 8G\	.	8g/L 8B/	.	8g/L	.	.	.	8r	.	.	.	8G\L	.	8r	.	.	8r	.	.	.
8r	.	8ryy	.	8d\J 8G\	.	8g/J 8B/	.	8b/J	.	.	.	8r	.	.	.	8B\J	.	8r	.	.	8r	.	.	.
=53	=53	=53	=53	=53	=53	=53	=53	=53	=53	=53	=53	=53	=53	=53	=53	=53	=53	=53	=53	=53	=53	=53	=53	=53
8E\	.	8E\yy	.	8r	.	8r	.	16.a/LL	.	8AA/	.	8E\	.	16.a/LL	.	8r	.	8r	.	4.r	8r	.	16.aa\LL	.
.	.	.	.	.	.	.	.	32b/JJk	.	.	.	.	.	32b/JJk	.	.	.	.	.	.	.	.	32bb\JJk	.
8r	.	8ryy	.	8c#X\L	.	8g/L 8A/	.	8a/L	.	8r	.	8r	.	8a/L	.	8c#X\L	.	8e/L 8A/	.	.	8gnX\L	.	8aa\L	.
8r	.	8ryy	.	8e\J	.	8g/J 8A/	.	8cc#X/J	.	8r	.	8r	.	8c#X/J	.	8A\J	.	8e/J 8A/	.	.	8g\J	.	8ccc#X\J	.
=54	=54	=54	=54	=54	=54	=54	=54	=54	=54	=54	=54	=54	=54	=54	=54	=54	=54	=54	=54	=54	=54	=54	=54	=54
8D\	.	8D\yy	.	8r	.	8r	.	16.dd\LL	.	8D/	.	8D\	.	16.d/LL	.	8r	.	8r	.	4.r	8r	.	16.ddd\LL	.
.	.	.	.	.	.	.	.	32ee\JJk	.	.	.	.	.	32e/JJk	.	.	.	.	.	.	.	.	32eee\JJk	.
8r	.	8ryy	.	8d\L	.	8f#/L 8A/	.	8ff#\L	.	8r	.	8r	.	8f#/L	.	8A\L	.	8f#\L 8d\	.	.	8f#\L	.	8fff#\L	.
8r	.	8ryy	.	8d\J	.	8f#/J 8A/	.	8dd\J	.	8r	.	8r	.	8d/J	.	8A\J	.	8f#\J 8d\	.	.	8f#\J	.	8ddd\J	.
=55	=55	=55	=55	=55	=55	=55	=55	=55	=55	=55	=55	=55	=55	=55	=55	=55	=55	=55	=55	=55	=55	=55	=55	=55
8C#X/	.	8C#X/yy	.	8r	.	8r	.	16.a/LL	.	8AA/L	.	8C#X/	.	16.a/LL	.	8r	.	8r	.	4.r	8r	.	16.aa\LL	.
.	.	.	.	.	.	.	.	32b/JJk	.	.	.	.	.	32b/JJk	.	.	.	.	.	.	.	.	32bb\JJk	.
8r	.	8ryy	.	8e/L 8A/	.	8g/L 8A/	.	8a/L	.	8r	.	8r	.	8a/L	.	8c#X\L	.	8e/L 8A/	.	.	8gnX\L	.	8aa\L	.
8AA/	.	8AA/yy	.	8A/J 8G/	.	8c#X/J	.	16e/L	.	8AA/J	.	8AA/	.	16e/L	.	8c#\J	.	8e/J 8A/	.	.	8g\J	.	16ee\L	.
.	.	.	.	.	.	.	.	16f#/JJ	.	.	.	.	.	16f#/JJ	.	.	.	.	.	.	.	.	16ff#\JJ	.
!!LO:PB:g=original
=56	=56	=56	=56	=56	=56	=56	=56	=56	=56	=56	=56	=56	=56	=56	=56	=56	=56	=56	=56	=56	=56	=56	=56	=56
!	!	!	!	!	!	!	!	!	!	!	!	!	!	!LO:TX:t=P:problem=mixed beam	!	!LO:TX:t=P:problem=mixed beam	!	!	!	!	!	!	!	!
8D\L	.	8D\Lyy	.	8A/L 8F#/	.	8d/L	.	8d/L	.	8D\L	.	8D\L	.	8d/L	.	8d\L	.	8d/L 8F#/	.	4.r	8f#\L	.	8dd\L	.
8D\J	.	8D\Jyy	.	8d/J 8D/	.	8f#/J 8A/	.	8dd/J 8f#/	.	8D\J	.	8D\J	.	8dd\J	.	8D/J	.	8d/J 8F#/	.	.	8f#\J	.	8ddd\J	.
8r	.	8ryy	.	8r	.	8r	.	8r	.	8r	.	8r	.	8r	.	8r	.	8r	.	.	8r	.	8r	.
=57	=57	=57	=57	=57	=57	=57	=57	=57	=57	=57	=57	=57	=57	=57	=57	=57	=57	=57	=57	=57	=57	=57	=57	=57
!LO:TX:t=P:problem=t. 57-64 – brak odnośnika do t. 33-40	!	!LO:TX:t=P:problem=t. 57-64 – brak odnośnika do t. 33-40	!	!LO:TX:t=P:problem=t. 57-64 – brak odnośnika do t. 33-40	!	!LO:TX:t=P:problem=t. 57-64 – brak odnośnika do t. 33-40	!	!LO:TX:t=P:problem=t. 57-62 – brak odnośnika do t. 33-38	!	!LO:TX:t=P:problem=t. 57-64 – brak odnośnika do t. 33-40	!	!LO:TX:t=P:problem=t. 57-64 – brak odnośnika do t. 33-40	!	!	!	!LO:TX:t=P:problem=t. 57-64 – brak odnośnika do t. 33-40	!	!LO:TX:t=P:problem=t. 57-64 – brak odnośnika do t. 33-40	!	!LO:TX:t=P:problem=t. 57-64 – brak odnośnika do t. 33-40	!	!	!LO:TX:t=P:problem=t. 57-64 – brak odnośnika do t. 33-40	!
8G\yy	pyy	8G\yyyy	pyy	8ryy	.	8ryy	.	4.ryy	.	4.ryyyy	.	4.ryy	.	8b/L 8g/	.	4.ryy	.	4.ryy	.	(8gg/Lyy	4.ryy	p	(8bb\Lyy	p
8ryy	.	8ryyyy	.	8dyy\L 8G\yyyy	pyy	8gyy/L 8B/yy	.	.	.	.	.	.	.	8dd/ 8b/	.	.	.	.	.	8bb/)yy	.	.	8ddd\)yy	.
8ryy	.	8ryyyy	.	8dyy\J 8G\yy	.	8gyy/J 8B/yy	.	.	.	.	.	.	.	8b/J 8g/	.	.	.	.	.	8gg'/Jyy	.	.	8bb'\Jyy	.
=58	=58	=58	=58	=58	=58	=58	=58	=58	=58	=58	=58	=58	=58	=58	=58	=58	=58	=58	=58	=58	=58	=58	=58	=58
8GG/yy	.	8GG/yyyy	.	16.eyy\LL 16.c\yy	.	16.ccyy/LL 16.eyy/ 16.G/yy	.	16.eeyy\LL 16.ccyy\ 16.gyy\ 16.c\yy	.	4.ryyyy	.	4.ryy	.	16.eeyy\LL 16.cc\	.	4.ryy	.	4.ryy	.	16.ee/LLyy	4.ryy	.	16.ccc\LLyy	.
.	.	.	.	32f#yy\JJk 32d\yy	.	32dd/JJkyy	.	32ff#\JJkyy	.	.	.	.	.	32ff#\JJk 32dd\	.	.	.	.	.	32ff#/JJkyy	.	.	32ddd\JJkyy	.
8ryy	.	8ryyyy	.	8gyy\L 8e\yy	.	8ee/Lyy	.	8gg\Lyy	.	.	.	.	.	8gg\L 8ee\	.	.	.	.	.	8gg/Lyy	.	.	8eee\Lyy	.
8ryy	.	8ryyyy	.	8eyy\J 8c\yy	.	8cc/Jyy	.	8ee\Jyy	.	.	.	.	.	16ff#\L 16dd\	.	.	.	.	.	8ee/Jyy	.	.	8ccc\Jyy	.
.	.	.	.	.	.	.	.	.	.	.	.	.	.	16ee\JJ 16cc\	.	.	.	.	.	.	.	.	.	.
=59	=59	=59	=59	=59	=59	=59	=59	=59	=59	=59	=59	=59	=59	=59	=59	=59	=59	=59	=59	=59	=59	=59	=59	=59
8G\yy	.	8G\yyyy	.	8ryy	.	8ryy	.	4.ryy	.	4.ryyyy	.	4.ryy	.	8b/L 8g/	.	4.ryy	.	4.ryy	.	(8gg/Lyy	4.ryy	.	(8bb\Lyy	.
8ryy	.	8ryyyy	.	8dyy/L 8G/yy	.	8gyy/L 8B/yy	.	.	.	.	.	.	.	8dd/ 8b/	.	.	.	.	.	8bb/)yy	.	.	8ddd\)yy	.
8ryy	.	8ryyyy	.	8dyy/J 8G/yy	.	8gyy/J 8B/yy	.	.	.	.	.	.	.	8b/J 8g/	.	.	.	.	.	8gg'/Jyy	.	.	8bb'\Jyy	.
=60	=60	=60	=60	=60	=60	=60	=60	=60	=60	=60	=60	=60	=60	=60	=60	=60	=60	=60	=60	=60	=60	=60	=60	=60
8D\yy	.	8D\yyyy	.	8ryy	.	16.a/LLyy	.	16.cc/LLyy	.	4.ryyyy	.	4.ryy	.	16.cc/LL	.	4.ryy	.	4.ryy	.	16.aa/LLyy	4.ryy	.	16.ccc\LLyy	.
.	.	.	.	.	.	32f#/JJkyy	.	32a/JJkyy	.	.	.	.	.	32a/JJk	.	.	.	.	.	32ff#/JJkyy	.	.	32aa\JJkyy	.
8ryy	.	8ryyyy	.	8dyy\L 8A\yy	.	8d/Lyy	.	8f#/Lyy	.	.	.	.	.	8f#/L	.	.	.	.	.	8dd/Lyy	.	.	8ff#\Lyy	.
8ryy	.	8ryyyy	.	8dyy\J 8A\yy	.	8f#yy/J 8c/yy	.	8d/Jyy	.	.	.	.	.	8d/J	.	.	.	.	.	8cc/Jyy	.	.	8dd\Jyy	.
=61	=61	=61	=61	=61	=61	=61	=61	=61	=61	=61	=61	=61	=61	=61	=61	=61	=61	=61	=61	=61	=61	=61	=61	=61
8G\yy	.	8G\yyyy	.	8ryy	.	8ryy	.	4.ryy	.	4.ryyyy	.	4.ryy	.	8b/L 8g/	.	4.ryy	.	4.ryy	.	8gg/Lyy	4.ryy	.	(8bb\Lyy	.
8ryy	.	8ryyyy	.	8dyy\L 8G\yy	.	8gyy/L 8B/yy	.	.	.	.	.	.	.	8dd/ 8b/	.	.	.	.	.	8bb/yy	.	.	(8ddd\)yy	.
8ryy	.	8ryyyy	.	8dyy\J 8G\yy	.	8gyy/J 8B/yy	.	.	.	.	.	.	.	8b/J 8g/	.	.	.	.	.	8gg/Jyy	.	.	8bb\J)yy	.
=62	=62	=62	=62	=62	=62	=62	=62	=62	=62	=62	=62	=62	=62	=62	=62	=62	=62	=62	=62	=62	=62	=62	=62	=62
8GG/yy	.	8GG/yyyy	.	16.eyy\LL 16.c\yy	.	16.ccyy/LL 16.eyy/ 16.G/yy	.	16.eeyy\LL 16.ccyy\ 16.gyy\ 16.c\yy	.	4.ryyyy	.	4.ryy	.	16.ee\LL 16.cc\	.	4.ryy	.	4.ryy	.	16.ee/LLyy	4.ryy	.	16.ccc\LLyy	.
.	.	.	.	32f#yy\JJk 32d\yy	.	32dd/JJkyy	.	32ff#\JJkyy	.	.	.	.	.	32ff#\JJk 32dd\	.	.	.	.	.	32ff#/JJkyy	.	.	32ddd\JJkyy	.
8ryy	.	8ryyyy	.	8gyy\L 8e\yy	.	8ee\Lyy	.	8gg\Lyy	.	.	.	.	.	8gg\L 8ee\	.	.	.	.	.	8gg/Lyy	.	.	8eee\Lyy	.
8ryy	.	8ryyyy	.	8eyy\J 8c\yy	.	8cc\Jyy	.	8ee\Jyy	.	.	.	.	.	16ff#\L 16dd\	.	.	.	.	.	8ee/Jyy	.	.	8ccc\Jyy	.
.	.	.	.	.	.	.	.	.	.	.	.	.	.	16ee\JJ 16cc\	.	.	.	.	.	.	.	.	.	.
=63	=63	=63	=63	=63	=63	=63	=63	=63	=63	=63	=63	=63	=63	=63	=63	=63	=63	=63	=63	=63	=63	=63	=63	=63
*	*	*	*	*	*	*	*	*	*	*	*	*	*	*	*	*^	*	*^	*	*	*	*	*	*
!	!	!	!	!	!	!	!	!	!	!	!	!	!	!LO:TX:t=P:problem=t. 63-64 – brak odnośnika do t. 39-40	!	!	!	!	!	!	!	!	!	!	!	!
8D\yy	.	8D\yyyy	.	8ryy	.	8ryy	.	16dd'\LLyy	.	4.ryyyy	.	4.ryy	.	8dd/Lyy	.	4.ryy	4.D\yy	.	4.f#yy/ 4.A/yy	4.ryy	.	4.ryy	4.c/yy	.	16dd'\LLyy	.
.	.	.	.	.	.	.	.	16ddd'\yy	.	.	.	.	.	.	.	.	.	.	.	.	.	.	.	.	16ddd'\yy	.
8ryy	.	8ryyyy	.	8dyy\L 8A\yy	.	8f#yy/L 8c/yy	.	(yy16ccc\yy	.	.	.	.	.	(yy16cc/Lyy	.	.	.	.	.	.	.	.	.	.	(16ccc\yy	.
.	.	.	.	.	.	.	.	16aa\)yy	.	.	.	.	.	16a/)yy	.	.	.	.	.	.	.	.	.	.	16aa\)yy	.
8ryy	.	8ryyyy	.	8dyy\J 8A\yy	.	8f#yy/J 8c/yy	.	(yy16ff#'\yy	.	.	.	.	.	16f#'/yy	.	.	.	.	.	.	.	.	.	.	16ff#'\yy	.
.	.	.	.	.	.	.	.	16dd'\JJ)yy	.	.	.	.	.	16d'/JJyy	.	.	.	.	.	.	.	.	.	.	16dd'\JJyy	.
*	*	*	*	*	*	*	*	*	*	*	*	*	*	*	*	*	*	*	*v	*v	*	*	*	*	*	*
=64	=64	=64	=64	=64	=64	=64	=64	=64	=64	=64	=64	=64	=64	=64	=64	=64	=64	=64	=64	=64	=64	=64	=64	=64	=64
!LO:TX:t=P:problem=mixed beam	!	!LO:TX:t=P:problem=mixed beam	!	!	!	!	!	!	!	!	!	!	!	!	!	!LO:TX:t=P:problem=mixed beam	!	!	!	!	!	!	!	!	!
8GG/Lyy	.	8GG/Lyyyy	.	8dyy/ 8G/yy	.	8gyy/ 8B/yy	.	8gg\yy	.	4.ryyyy	.	4.ryy	.	8g/yy	.	8GG/Lyy	4.ryy	.	8gyy/L 8B/yy	.	4.ryy	8B/Lyy	.	8gg\yy	.
8G/Jyy	.	8G/Jyyyy	.	8dyy/ 8G/yy	.	8gyy/ 8B/yy	.	8gyy/ 8Gyy/	.	.	.	.	.	8g/yy	.	8G/Jyy	.	.	8gyy/J 8B/yy	.	.	8B/Jyy	.	8g/yy	.
!	!	!	!	!	!	!	!	!	!	!	!	!	!	!	!	!	!	!	!	!	!	!	!	!LO:TX:a:t=Da Capo Mazur al fine [fermata]	!
8ryy	.	8ryyyy	.	8ryy	.	8ryy	.	8ryy	.	.	.	.	.	8ryy	.	8ryy	.	.	8ryy	.	.	8ryy	.	8ryy	.
*	*	*	*	*	*	*	*	*	*	*	*	*	*	*	*	*v	*v	*	*	*	*v	*v	*	*	*
=:|!	=:|!	=:|!	=:|!	=:|!	=:|!	=:|!	=:|!	=:|!	=:|!	=:|!	=:|!	=:|!	=:|!	=:|!	=:|!	=:|!	=:|!	=:|!	=:|!	=:|!	=:|!	=:|!	=:|!
*-	*-	*-	*-	*-	*-	*-	*-	*-	*-	*-	*-	*-	*-	*-	*-	*-	*-	*-	*-	*-	*-	*-	*-
!!!system-decoration: s1,s2,s3,s4,s5,s6,s7[(s8,s9,s10,s11,s12)]
!!!RDF**kern: > = above
!!!RDF**kern: < = below
!!!RDF**kern: | = vertical stroke
!!!EED: Leszek Kubiak
!!!EEV: 2021-07-01
!!!ENC: Katarzyna Serwa
!!!END: 2021-06-09
!!!YEC: Copyright 2022 Narodowy Instytut Fryderyka Chopina (https://polishscores.org)
!!!YEM: Licence CC BY 4.0 (https://creativecommons.org/licenses/by/4.0)
